img/main-icons/left-arrow-icon.svg

<svg width="20" height="30" viewBox="0 0 20 30" fill="none" xmlns="http://www.w3.org/2000/svg">
<path d="M16.0369 29.4063L0.50694 16.1082C0.322609 15.9499 0.191734 15.7784 0.114314 15.5937C0.0368951 15.409 -0.00120008 15.2111 2.88018e-05 15C2.88018e-05 14.7889 0.0387384 14.591 0.116158 14.4063C0.193577 14.2216 0.323838 14.0501 0.50694 13.8918L16.0369 0.55409C16.467 0.184696 17.0046 0 17.6498 0C18.2949 0 18.8479 0.197889 19.3088 0.593668C19.7696 0.989446 20 1.45119 20 1.97889C20 2.5066 19.7696 2.96834 19.3088 3.36412L5.76039 15L19.3088 26.6359C19.7389 27.0053 19.9539 27.4607 19.9539 28.0021C19.9539 28.5435 19.7235 29.0116 19.2627 29.4063C18.8018 29.8021 18.2642 30 17.6498 30C17.0353 30 16.4977 29.8021 16.0369 29.4063Z" fill="black"/>
</svg>

<svg width="20" height="30" fill="none" xmlns="http://www.w3.org/2000/svg"><path d="M16.037 29.406.507 16.108a1.398 1.398 0 0 1-.393-.514A1.497 1.497 0 0 1 0 15c0-.211.039-.409.116-.594.078-.184.208-.356.39-.514L16.037.554C16.468.184 17.006 0 17.65 0c.645 0 1.198.198 1.659.594.46.395.691.857.691 1.385s-.23.99-.691 1.385L5.76 15 19.31 26.636c.43.37.645.825.645 1.366 0 .542-.23 1.01-.691 1.404A2.4 2.4 0 0 1 17.65 30a2.399 2.399 0 0 1-1.613-.594Z" fill="#000"/></svg>
